img/icon-depression.svg

<svg width="48" height="48" viewBox="0 0 48 48" fill="none" xmlns="http://www.w3.org/2000/svg">
<path d="M21.265 41.0565C21.9072 40.4122 22.7615 40.0574 23.6705 40.0574C24.5794 40.0574 25.4337 40.4122 26.0759 41.0565C26.2133 41.1943 26.3935 41.2633 26.5739 41.2633C26.7535 41.2633 26.9331 41.195 27.0703 41.0582C27.3454 40.7841 27.346 40.3388 27.0719 40.0639C26.164 39.1529 24.9561 38.6512 23.6706 38.6512C22.385 38.6512 21.177 39.1529 20.2691 40.0639C19.9949 40.3389 19.9957 40.7841 20.2707 41.0582C20.5456 41.3322 20.9908 41.3317 21.265 41.0565Z" fill="url(#paint0_linear)"/>
<path d="M19.5655 32.7768C19.8447 32.5068 19.8521 32.0617 19.5821 31.7826C19.3123 31.5035 18.8671 31.4959 18.588 31.766C17.8865 32.4445 16.7469 32.4448 16.0476 31.7666C15.7688 31.4963 15.3237 31.5031 15.0534 31.7818C14.783 32.0606 14.7898 32.5058 15.0686 32.776C15.6879 33.3767 16.5019 33.677 17.3165 33.677C18.1306 33.677 18.9451 33.3769 19.5655 32.7768Z" fill="url(#paint1_linear)"/>
<path d="M32.2746 32.7768C32.5538 32.5068 32.5612 32.0617 32.2912 31.7826C32.0214 31.5035 31.5762 31.4959 31.2971 31.766C30.5958 32.4443 29.4546 32.4442 28.7532 31.766C28.474 31.4959 28.0288 31.5035 27.759 31.7826C27.4892 32.0617 27.4965 32.5069 27.7757 32.7768C28.3959 33.3766 29.2107 33.6765 30.0252 33.6765C30.8398 33.6765 31.6544 33.3766 32.2746 32.7768Z" fill="url(#paint2_linear)"/>
<path d="M46.1228 9.22322C46.0494 6.9195 44.2421 5.02416 41.959 4.81763C41.247 3.74062 40.044 3.08531 38.738 3.08531C38.4114 3.08531 38.0833 3.12788 37.7576 3.21272C37.7519 3.20053 37.7461 3.18825 37.74 3.17569C36.8599 1.34334 34.9763 0.159375 32.9416 0.159375C30.0055 0.159375 27.6168 2.54672 27.6168 5.48128C27.6168 5.50706 27.6171 5.53209 27.6174 5.55619C26.0885 5.99325 24.9963 7.31503 24.8407 8.87991C24.0787 8.25984 23.1104 7.93791 22.1168 7.99378C21.3716 6.40078 19.7785 5.38144 18.0082 5.38144C17.9272 5.38144 17.8468 5.38434 17.7667 5.38856C17.2705 3.66806 15.6349 2.46797 13.7979 2.56697C13.0601 1.00134 11.4917 0 9.75103 0C8.00859 0 6.44063 1.00209 5.70619 2.56687C4.66556 2.51081 3.63581 2.87822 2.85806 3.5865C2.03559 4.33556 1.58259 5.36147 1.58259 6.47513C1.58259 6.84234 1.62713 7.10044 1.67484 7.28241C1.62525 7.32366 1.57434 7.36537 1.53375 7.39866C0.767625 8.02781 0.328125 8.95725 0.328125 9.94856C0.328125 11.7679 1.80834 13.248 3.62775 13.248H9.29944C8.74678 13.8577 8.43656 14.6511 8.43656 15.4894C8.43656 16.7494 9.13669 17.8485 10.1678 18.4187C8.86622 20.8958 8.16122 23.757 8.07169 26.9469H6.51928C5.29631 26.9469 4.30134 27.9419 4.30134 29.1648V30.6637C4.30134 31.7115 4.82006 32.8247 5.72456 33.7178C6.52584 34.509 7.52709 35.0262 8.49244 35.1669C8.78269 36.2094 9.21712 37.2757 9.78919 38.3397C9.23353 39.4463 8.78213 40.6595 8.78213 41.5461C8.78213 42.6716 9.19247 43.6241 9.96891 44.3005C10.6457 44.8902 11.5485 45.215 12.5109 45.215C14.364 45.215 16.2397 43.9548 16.2397 41.5461C16.2397 39.8857 14.6565 37.0791 13.7702 35.9744C13.5127 35.6535 13.1019 35.227 12.51 35.227C12.5095 35.227 12.509 35.227 12.5085 35.227C11.9167 35.2277 11.5075 35.654 11.2511 35.975C11.0652 36.2067 10.8486 36.514 10.6224 36.8692C10.2249 36.0181 9.92775 35.1754 9.73416 34.3575C9.73294 34.3518 9.73134 34.3462 9.72994 34.3404C9.55716 33.6052 9.46809 32.89 9.46809 32.2077V28.2865C12.348 27.9171 13.683 26.5569 14.6753 25.5449C15.6831 24.5171 16.238 23.9511 17.8887 24.3767C18.6324 24.5683 19.2639 24.7367 19.8211 24.8853C21.7119 25.3895 22.6611 25.6426 23.6717 25.6426C24.6805 25.6426 25.6263 25.3905 27.5104 24.8882C28.0705 24.7388 28.7054 24.5696 29.4548 24.3766C31.1042 23.9512 31.6583 24.5172 32.6652 25.5443C33.6575 26.5566 34.9922 27.917 37.8727 28.2865V32.2077C37.8727 32.8867 37.7856 33.5868 37.6227 34.2953C37.6136 34.3247 37.6069 34.3551 37.6017 34.3859C36.4883 39.0491 32.0848 44.0604 27.1578 45.8858C25.8595 46.3688 24.7518 46.5938 23.6716 46.5938C22.5896 46.5938 21.481 46.3688 20.1814 45.8853C19.3874 45.5918 18.5868 45.2085 17.8017 44.7458C17.4676 44.5488 17.0362 44.6601 16.8389 44.9947C16.6418 45.3292 16.7532 45.7602 17.0877 45.9574C17.9448 46.4624 18.8215 46.8819 19.6924 47.2038C21.1524 47.747 22.4169 48 23.6715 48C24.9244 48 26.1879 47.747 27.6471 47.2042C30.7108 46.0691 33.6246 43.8502 35.8517 40.9561C37.2772 39.1037 38.3046 37.0977 38.8445 35.1675C39.811 35.0275 40.8139 34.51 41.6161 33.7178C42.5205 32.8248 43.0393 31.7115 43.0393 30.6637V29.1648C43.0393 27.9419 42.0443 26.9469 40.8214 26.9469H39.2684C39.1149 21.4497 37.1756 17.8001 35.1912 15.4882H38.4906C38.879 15.4882 39.1937 15.1734 39.1937 14.7851C39.1937 14.3968 38.879 14.082 38.4906 14.082H26.4703C25.3647 14.082 24.4653 13.1827 24.4653 12.0772C24.4653 11.3092 24.918 10.5977 25.6194 10.2643C25.6566 10.2466 25.6859 10.234 25.709 10.2241C26.091 10.0595 26.262 9.78206 26.232 9.37603C26.2301 9.35025 26.2273 9.31509 26.2273 9.2655C26.2273 8.13778 26.9918 7.15941 28.088 6.88584C28.1684 6.86559 28.2337 6.85116 28.2862 6.83953C28.5012 6.792 29.1556 6.64716 29.0467 5.81784C29.0362 5.73806 29.0231 5.63878 29.0231 5.48128C29.0231 3.32222 30.7809 1.56563 32.9417 1.56563C34.4392 1.56563 35.825 2.43666 36.473 3.78572C36.5459 3.93694 36.579 4.03856 36.6054 4.12022C36.6527 4.26591 36.7406 4.53703 37.0386 4.68459C37.3405 4.83413 37.6074 4.74047 37.8024 4.67203C37.8547 4.65375 37.9196 4.63088 37.9972 4.60622C38.2429 4.53009 38.4921 4.49156 38.7379 4.49156C39.6446 4.49156 40.4736 4.98891 40.9035 5.79028C41.0415 6.06684 41.3018 6.22153 41.6086 6.20587C43.325 6.23531 44.7188 7.65131 44.7188 9.36919C44.7188 9.41616 44.7173 9.45206 44.7163 9.48019C44.7066 9.74531 44.7511 10.0784 45.1869 10.3035C45.2105 10.3157 45.2425 10.332 45.2891 10.3603C45.8915 10.7213 46.2656 11.3792 46.2656 12.0772C46.2656 13.1827 45.3662 14.082 44.2606 14.082H41.7385C41.3501 14.082 41.0354 14.3968 41.0354 14.7851C41.0354 15.1734 41.3501 15.4882 41.7385 15.4882H44.2606C46.1415 15.4882 47.6719 13.9581 47.6719 12.0772C47.6719 10.9299 47.0801 9.84731 46.1228 9.22322ZM12.3485 36.8545C12.3488 36.8541 12.3492 36.8537 12.3496 36.8532C12.4193 36.7659 12.4727 36.7104 12.5105 36.6755C12.5487 36.7104 12.6028 36.7664 12.6735 36.8545C13.5433 37.9386 14.8336 40.3863 14.8336 41.5461C14.8336 43.1091 13.6671 43.8087 12.511 43.8087C11.355 43.8087 10.1885 43.1091 10.1885 41.5461C10.1884 40.3863 11.4786 37.9386 12.3485 36.8545ZM3.62775 11.8417C2.58366 11.8417 1.73438 10.9925 1.73438 9.94856C1.73438 9.37988 1.98647 8.84662 2.42569 8.48597C2.94834 8.05762 3.32606 7.74806 3.07613 7.05197C3.03722 6.94378 2.98884 6.80906 2.98884 6.47531C2.98884 5.76234 3.27872 5.10572 3.80494 4.62638C4.32891 4.14928 5.02969 3.91313 5.72784 3.97837C5.80134 3.98531 5.85169 3.99441 5.89603 4.00247C6.37153 4.08853 6.69788 3.89691 6.86784 3.43341C6.88134 3.39684 6.89869 3.34894 6.92587 3.28472C7.40466 2.1435 8.51363 1.40625 9.75103 1.40625C10.9878 1.40625 12.098 2.14397 12.5782 3.28303C12.604 3.34509 12.6211 3.393 12.6343 3.42947C12.8019 3.89541 13.1294 4.08844 13.6064 4.00247C13.6513 3.99441 13.7021 3.98522 13.7761 3.97837C14.9559 3.86906 16.0252 4.60153 16.3853 5.68069C15.3062 6.09319 14.4076 6.91022 13.8999 7.99387C12.8439 7.93556 11.7954 8.30738 11.0054 9.02691C10.2002 9.76041 9.74559 10.7564 9.71531 11.8418L3.62775 11.8417ZM6.71269 32.7172C6.07397 32.0864 5.70759 31.338 5.70759 30.6637V29.1648C5.70759 28.7173 6.07172 28.3532 6.51928 28.3532H8.06184V32.2076C8.06184 32.6759 8.09897 33.1564 8.16919 33.6452C7.6605 33.4673 7.14581 33.1449 6.71269 32.7172ZM41.6333 29.1648V30.6637C41.6333 31.338 41.2671 32.0865 40.6283 32.7172C40.1944 33.1456 39.6794 33.469 39.1699 33.6467C39.2416 33.1564 39.2791 32.6752 39.2791 32.2076V28.3532H40.8217C41.2692 28.3532 41.6333 28.7173 41.6333 29.1648ZM27.5828 15.4894C27.5828 15.489 27.5828 15.4886 27.5828 15.4882H33.2625C36.1215 18.2614 37.7023 22.1761 37.8597 26.8659C35.6002 26.5291 34.58 25.4885 33.6697 24.5598C32.6223 23.4913 31.5398 22.3864 29.1041 23.0147C28.3492 23.209 27.7112 23.3791 27.1483 23.5292C25.3827 23.9999 24.4965 24.2362 23.6719 24.2362C22.8456 24.2362 21.9559 23.9991 20.1836 23.5264C19.6237 23.377 18.9892 23.2079 18.2398 23.0148C15.8026 22.3866 14.7193 23.4916 13.6715 24.5603C12.761 25.4888 11.7405 26.5292 9.48122 26.8659C9.58228 23.8342 10.2752 21.135 11.5442 18.8248C11.6219 18.8303 11.7 18.834 11.779 18.834H24.238C26.0822 18.834 27.5828 17.3336 27.5828 15.4894ZM26.1759 15.4747C26.1759 15.4796 26.1764 15.4845 26.1764 15.4894C26.1764 16.5582 25.3068 17.4277 24.2378 17.4277H11.7788C10.7113 17.4277 9.84291 16.5582 9.84291 15.4894C9.84291 14.9063 10.1007 14.3607 10.5512 13.9914C11.078 13.5582 11.4586 13.2453 11.2077 12.5466C11.1932 12.5061 11.1774 12.4617 11.1632 12.4055C11.1623 12.4013 11.1612 12.3973 11.1603 12.3933C11.137 12.2967 11.1186 12.1651 11.1186 11.9576C11.1186 11.2279 11.4147 10.5562 11.9525 10.0665C12.4871 9.57947 13.2023 9.33797 13.9177 9.405C13.994 9.41203 14.0458 9.42131 14.0916 9.42956C14.5709 9.51534 14.8983 9.32128 15.0659 8.85337C15.0793 8.81606 15.0968 8.76703 15.1221 8.70609C15.6115 7.54078 16.7446 6.78778 18.0084 6.78778C19.2723 6.78778 20.4053 7.54078 20.8952 8.70694C20.922 8.77069 20.9398 8.81981 20.9535 8.85722C21.1234 9.32278 21.4513 9.51534 21.9275 9.42947C21.9727 9.42131 22.0241 9.41203 22.0998 9.40509C22.7337 9.34631 23.3567 9.52556 23.8581 9.89541C23.3538 10.4996 23.0592 11.2692 23.0592 12.0773C23.059 13.8589 24.4324 15.3249 26.1759 15.4747Z" fill="url(#paint3_linear)"/>
<path d="M30.7748 7.54001C29.4385 7.75151 28.9312 8.52654 28.7409 9.13957C28.6258 9.51045 28.8331 9.90438 29.2039 10.0195C29.2733 10.0411 29.3435 10.0513 29.4126 10.0513C29.7125 10.0513 29.9903 9.85788 30.084 9.55648C30.162 9.30513 30.3312 9.03401 30.9948 8.92901C31.3783 8.86835 31.6401 8.50816 31.5793 8.12454C31.5186 7.74101 31.159 7.47926 30.7748 7.54001Z" fill="url(#paint4_linear)"/>
<path d="M15.1321 10.5351C14.1901 10.6837 13.4371 11.2718 13.1671 12.0698C13.0427 12.4377 13.24 12.8368 13.6078 12.9612C13.6826 12.9865 13.7585 12.9984 13.8332 12.9984C14.1264 12.9984 14.4001 12.8135 14.4992 12.5205C14.6011 12.2195 14.9276 11.991 15.3514 11.924C15.735 11.8635 15.9969 11.5035 15.9362 11.1199C15.8758 10.7363 15.5161 10.4746 15.1321 10.5351Z" fill="url(#paint5_linear)"/>
<path d="M6.14298 5.17401C4.94204 5.69704 4.65404 6.54913 4.62376 7.17182C4.60501 7.55967 4.90417 7.88938 5.29201 7.90813C5.30363 7.9087 5.31517 7.90898 5.3266 7.90898C5.69935 7.90898 6.01013 7.6162 6.02832 7.23988C6.04013 6.99632 6.12967 6.71357 6.70435 6.46326C7.06041 6.3082 7.22335 5.89391 7.06829 5.53785C6.91341 5.18198 6.49895 5.01894 6.14298 5.17401Z" fill="url(#paint6_linear)"/>
<defs>
<linearGradient id="paint0_linear" x1="23.6705" y1="38.6512" x2="23.6705" y2="41.2633" gradientUnits="userSpaceOnUse">
<stop stop-color="#C45ED3"/>
<stop offset="1" stop-color="#FBA2B8"/>
</linearGradient>
<linearGradient id="paint1_linear" x1="17.3174" y1="31.5682" x2="17.3174" y2="33.677" gradientUnits="userSpaceOnUse">
<stop stop-color="#C45ED3"/>
<stop offset="1" stop-color="#FBA2B8"/>
</linearGradient>
<linearGradient id="paint2_linear" x1="30.0252" y1="31.5682" x2="30.0252" y2="33.6765" gradientUnits="userSpaceOnUse">
<stop stop-color="#C45ED3"/>
<stop offset="1" stop-color="#FBA2B8"/>
</linearGradient>
<linearGradient id="paint3_linear" x1="24" y1="0" x2="24" y2="48" gradientUnits="userSpaceOnUse">
<stop stop-color="#C45ED3"/>
<stop offset="1" stop-color="#FBA2B8"/>
</linearGradient>
<linearGradient id="paint4_linear" x1="30.1486" y1="7.53125" x2="30.1486" y2="10.0513" gradientUnits="userSpaceOnUse">
<stop stop-color="#C45ED3"/>
<stop offset="1" stop-color="#FBA2B8"/>
</linearGradient>
<linearGradient id="paint5_linear" x1="14.5374" y1="10.5264" x2="14.5374" y2="12.9984" gradientUnits="userSpaceOnUse">
<stop stop-color="#C45ED3"/>
<stop offset="1" stop-color="#FBA2B8"/>
</linearGradient>
<linearGradient id="paint6_linear" x1="5.87494" y1="5.11536" x2="5.87494" y2="7.90898" gradientUnits="userSpaceOnUse">
<stop stop-color="#C45ED3"/>
<stop offset="1" stop-color="#FBA2B8"/>
</linearGradient>
</defs>
</svg>

<svg xmlns="http://www.w3.org/2000/svg" xmlns:xlink="http://www.w3.org/1999/xlink" width="48" height="48" fill="none"  ><path d="M21.265 41.057c.642-.644 1.497-.999 2.406-.999s1.763.355 2.405.999a.7.7 0 0 0 .994.002c.275-.274.276-.719.002-.994a4.77 4.77 0 0 0-3.401-1.413 4.77 4.77 0 0 0-3.401 1.413c-.274.275-.273.72.002.994s.72.273.994-.002z" fill="url(#A)"/><path d="M19.566 32.777c.279-.27.287-.715.017-.994s-.715-.287-.994-.017a1.84 1.84 0 0 1-2.54.001c-.279-.27-.724-.264-.994.015s-.264.724.015.994a3.22 3.22 0 0 0 2.248.901c.814 0 1.629-.3 2.249-.9z" fill="url(#B)"/><path d="M32.275 32.777c.279-.27.287-.715.017-.994s-.715-.287-.994-.017c-.701.678-1.843.678-2.544 0-.279-.27-.724-.262-.994.017s-.262.724.017.994c.62.6 1.435.9 2.25.9s1.629-.3 2.249-.9z" fill="url(#C)"/><path d="M46.123 9.223c-.073-2.304-1.881-4.199-4.164-4.406-.712-1.077-1.915-1.732-3.221-1.732-.327 0-.655.043-.98.127l-.018-.037A5.35 5.35 0 0 0 32.942.159a5.33 5.33 0 0 0-5.325 5.322v.075a3.85 3.85 0 0 0-2.777 3.324 3.96 3.96 0 0 0-2.724-.886c-.745-1.593-2.338-2.612-4.109-2.612l-.241.007c-.496-1.72-2.132-2.921-3.969-2.822C13.06 1.001 11.492 0 9.751 0a4.46 4.46 0 0 0-4.045 2.567c-1.041-.056-2.07.311-2.848 1.02a3.86 3.86 0 0 0-1.275 2.889c0 .367.045.625.092.807l-.141.116a3.29 3.29 0 0 0-1.206 2.55c0 1.819 1.48 3.299 3.3 3.299h5.672a3.33 3.33 0 0 0-.863 2.241c0 1.26.7 2.359 1.731 2.929-1.302 2.477-2.007 5.338-2.096 8.528H6.519a2.22 2.22 0 0 0-2.218 2.218v1.499c0 1.048.519 2.161 1.423 3.054.801.791 1.803 1.308 2.768 1.449a15.53 15.53 0 0 0 1.297 3.173c-.556 1.107-1.007 2.32-1.007 3.206 0 1.125.41 2.078 1.187 2.754.677.59 1.58.915 2.542.915 1.853 0 3.729-1.26 3.729-3.669 0-1.66-1.583-4.467-2.469-5.572-.258-.321-.668-.747-1.26-.747s-1.002.427-1.259.748c-.186.232-.402.539-.629.894-.398-.851-.695-1.694-.888-2.512-.177-.752-.266-1.468-.266-2.15v-3.921c2.88-.369 4.215-1.73 5.207-2.742 1.008-1.028 1.563-1.594 3.213-1.168l1.932.509c1.891.504 2.84.757 3.851.757s1.955-.252 3.839-.754l1.944-.512c1.649-.425 2.204.141 3.21 1.168.992 1.012 2.327 2.373 5.208 2.742v3.921a9.34 9.34 0 0 1-.25 2.088.7.7 0 0 0-.021.091c-1.113 4.663-5.517 9.675-10.444 11.5-1.298.483-2.406.708-3.486.708s-2.191-.225-3.49-.709c-.794-.294-1.595-.677-2.38-1.139-.334-.197-.765-.086-.963.249s-.086.765.249.963a16.27 16.27 0 0 0 2.605 1.246c1.46.543 2.724.796 3.979.796s2.516-.253 3.976-.796c3.064-1.135 5.978-3.354 8.205-6.248 1.425-1.852 2.453-3.858 2.993-5.789.967-.14 1.969-.657 2.772-1.45.904-.893 1.423-2.006 1.423-3.054v-1.499a2.22 2.22 0 0 0-2.218-2.218h-1.553c-.154-5.497-2.093-9.147-4.077-11.459h3.299c.388 0 .703-.315.703-.703s-.315-.703-.703-.703H26.47a2.01 2.01 0 0 1-2.005-2.005 2.02 2.02 0 0 1 1.154-1.813c.037-.018.067-.03.09-.04a.78.78 0 0 0 .523-.848c-.002-.026-.005-.061-.005-.111a2.45 2.45 0 0 1 1.861-2.38c.08-.02.146-.035.198-.046.215-.048.869-.192.761-1.022-.011-.08-.024-.179-.024-.337 0-2.159 1.758-3.916 3.919-3.916 1.498 0 2.883.871 3.531 2.22a2.38 2.38 0 0 1 .132.334c.047.146.135.417.433.564s.569.056.764-.013l.195-.066c.246-.076.495-.115.741-.115.907 0 1.736.497 2.166 1.299.138.277.398.431.705.416a3.18 3.18 0 0 1 3.11 3.163c0 .047-.002.083-.003.111-.01.265.035.598.471.823.024.012.056.029.102.057.602.361.977 1.019.977 1.717a2.01 2.01 0 0 1-2.005 2.005h-2.522c-.388 0-.703.315-.703.703s.315.703.703.703h2.522c1.881 0 3.411-1.53 3.411-3.411 0-1.147-.592-2.23-1.549-2.854zM12.349 36.855a1.62 1.62 0 0 1 .162-.179 1.6 1.6 0 0 1 .163.179c.87 1.084 2.16 3.532 2.16 4.692 0 1.563-1.167 2.263-2.323 2.263s-2.322-.7-2.322-2.263c0-1.16 1.29-3.608 2.16-4.692zM3.628 11.842c-1.044 0-1.893-.849-1.893-1.893 0-.569.252-1.102.691-1.463.523-.428.9-.738.65-1.434-.039-.108-.087-.243-.087-.577a2.47 2.47 0 0 1 .816-1.849c.524-.477 1.225-.713 1.923-.648.074.007.124.016.168.024.476.086.802-.106.972-.569.013-.037.031-.084.058-.149.479-1.141 1.588-1.878 2.825-1.878s2.347.738 2.827 1.877c.026.062.043.11.056.146.168.466.495.659.972.573.045-.008.096-.017.17-.024 1.18-.109 2.249.623 2.609 1.702A4.53 4.53 0 0 0 13.9 7.994c-1.056-.058-2.104.314-2.895 1.033-.805.733-1.26 1.729-1.29 2.815H3.628zm3.085 20.876c-.639-.631-1.005-1.379-1.005-2.053v-1.499c0-.447.364-.812.812-.812h1.543v3.854c0 .468.037.949.107 1.438a4 4 0 0 1-1.457-.928zm34.921-3.552v1.499c0 .674-.366 1.423-1.005 2.053a4 4 0 0 1-1.458.93 9.96 9.96 0 0 0 .109-1.439v-3.854h1.543c.447 0 .812.364.812.812zm-14.05-13.675l5.68-.001c2.859 2.773 4.44 6.688 4.597 11.378-2.259-.337-3.28-1.377-4.19-2.306-1.047-1.069-2.13-2.173-4.566-1.545l-1.956.514c-1.766.471-2.652.707-3.476.707s-1.716-.237-3.488-.71l-1.944-.512c-2.437-.628-3.52.477-4.568 1.546-.911.928-1.931 1.969-4.19 2.306.101-3.032.794-5.731 2.063-8.041a3.32 3.32 0 0 0 .235.009h12.459a3.35 3.35 0 0 0 3.345-3.345zm-1.407-.015c.001 1.083-.869 1.953-1.938 1.953H11.779a1.94 1.94 0 0 1-1.936-1.938 1.93 1.93 0 0 1 .708-1.498c.527-.433.907-.746.657-1.445a1.45 1.45 0 0 1-.045-.141c-.026-.109-.045-.24-.045-.448a2.53 2.53 0 0 1 .834-1.891 2.57 2.57 0 0 1 1.965-.662 1.85 1.85 0 0 1 .174.025c.479.086.807-.108.974-.576.013-.037.031-.086.056-.147.489-1.165 1.622-1.918 2.886-1.918s2.397.753 2.887 1.919c.027.064.045.113.058.15.17.466.498.658.974.572.045-.008.097-.017.172-.024a2.56 2.56 0 0 1 1.758.49c-.504.604-.799 1.374-.799 2.182 0 1.782 1.373 3.248 3.117 3.397z" fill="url(#D)"/><path d="M30.775 7.54c-1.336.212-1.844.987-2.034 1.6-.115.371.092.765.463.88a.7.7 0 0 0 .209.032c.3 0 .578-.193.671-.495.078-.251.247-.522.911-.627.383-.061.645-.421.584-.804s-.42-.645-.805-.585z" fill="url(#E)"/><path d="M15.132 10.535c-.942.149-1.695.737-1.965 1.535-.124.368.073.767.441.891a.7.7 0 0 0 .225.037c.293 0 .567-.185.666-.478.102-.301.428-.53.852-.597.384-.06.646-.42.585-.804s-.42-.645-.804-.585z" fill="url(#F)"/><path d="M6.143 5.174c-1.201.523-1.489 1.375-1.519 1.998-.019.388.28.718.668.736l.035.001c.373 0 .684-.293.702-.669.012-.244.101-.526.676-.777.356-.155.519-.569.364-.925s-.569-.519-.925-.364z" fill="url(#G)"/><defs><linearGradient id="A" x1="23.671" y1="38.651" x2="23.671" y2="41.263" xlink:href="#H"><stop stop-color="#c45ed3"/><stop offset="1" stop-color="#fba2b8"/></linearGradient><linearGradient id="B" x1="17.317" y1="31.568" x2="17.317" y2="33.677" xlink:href="#H"><stop stop-color="#c45ed3"/><stop offset="1" stop-color="#fba2b8"/></linearGradient><linearGradient id="C" x1="30.025" y1="31.568" x2="30.025" y2="33.677" xlink:href="#H"><stop stop-color="#c45ed3"/><stop offset="1" stop-color="#fba2b8"/></linearGradient><linearGradient id="D" x1="24" y1="0" x2="24" y2="48" xlink:href="#H"><stop stop-color="#c45ed3"/><stop offset="1" stop-color="#fba2b8"/></linearGradient><linearGradient id="E" x1="30.149" y1="7.531" x2="30.149" y2="10.051" xlink:href="#H"><stop stop-color="#c45ed3"/><stop offset="1" stop-color="#fba2b8"/></linearGradient><linearGradient id="F" x1="14.537" y1="10.526" x2="14.537" y2="12.998" xlink:href="#H"><stop stop-color="#c45ed3"/><stop offset="1" stop-color="#fba2b8"/></linearGradient><linearGradient id="G" x1="5.875" y1="5.115" x2="5.875" y2="7.909" xlink:href="#H"><stop stop-color="#c45ed3"/><stop offset="1" stop-color="#fba2b8"/></linearGradient><linearGradient id="H" gradientUnits="userSpaceOnUse"/></defs></svg>
